X:432
T: Was hrt man denn Neues vom Krieg (151), S. 332
N: T0320
O: Luxemburg
S: Singendes Volk, Esch-Alzette 1937, posth.]
N: Esch-Alzette, fff Michel Rauchs, 22.1.1934
R: historische, Kriegs- und Soldatenlieder]
M: 6/8
L: 1/16
K: F
C2 | A2A2A2A2G2F2 | F2E2z6
C2 | B2B2c2d2c2G2 | A4z6
C2 | A2A2A2A2G2F2 | F2E2z6
C2 | B2B2c2d2c2G2 | A4z6
A2 | A2AAA2A2G2A2 | B2B2z6
A2 | A2AAA2A2G2A2 | B2B2z6
c2 | A2A2A2A2B2c2 | d4z6
fc | c2f2f2e2d2e2 | f4c2z4
c2 | A2A2A2A2B2c2 | d4z6
fc | c2f2f2e2d2e2 | f6z4

